X:1
T:Title
%%score 1 { 2 | 3 }
L:1/8
Q:1/4=110
M:4/4
K:G
V:1 treble nm="Grand Piano, Soprano"
V:2 bass nm="Choir Pad, Tallinn, Stanford M. Brown"
V:3 bass 
V:1
 D .G3 G .G3 | G B2 B- B/ z/ .G3 | [GB] [GB]2 [GB] [GB] [DA]2 [EG]- | %3
w: By~Sanford~Miller~Brown,~1889 * * *|||
 [EG] [FA]3- [FA]2- [FA]/ z/ z | D .[DG]3 [GB] .[Gd]3 | [GB] [FA]2 G- G/ z/ [Ec]3 | %6
w: |||
 [Ec] [DB]3 [DB] [DB]2 [DA]- | [DA] [DG]3- [DG]2- [DG]/ z/ [DG]- | [DG] [EG]2 [Ec]- [Ec] [Ec]3 | %9
w: |||
 [Ec] [Ec]2 [DB]- [DB] [DB]3 | [GB] [FA]2 [FA]- [FA] [GB]2 [G^c]- | %11
w: ||
 [Gc] [Fd]3- [Fd]2- [Fd]/ z/ D- | D G2 B- B/ z/ d3 | [GB] [FA]2 G- G/ z/ [Ge]3 | %14
w: |||
 [Ge] [Fd]3 [GB] [FA]2 [FA]- | [FA] G3- G4- | G2 z2 z4 |] %17
w: |||
V:2
 D, .G,3 G, .G,3 | G, B,2 B,- B,/ z/ .G,3 | D D2 D D D2 ^C- | C D3- D2- D/ z/ z | B, .B,3 D .B,3 | %5
 D C2 B,- B, C3 | G, G,3 G, G,2 C- | C B,3- B,2- B,/ z/ B,- | B, C2 G,- G, G,3 | %9
 G, G,2 G,- G,/ z/ G,3 | D D2 D- D D2[K:bass] A,- | A, A,3- A,2- A,/ z/ D,- | %12
 D, G,2 B,- B,/ z/[K:treble] D3 | D C2 B,- B, C3 | C A,3 D C2[K:bass] C- | C B,3- B,4- | %16
 B,2 z2 z4 |] %17
V:3
 z8 | z8 | G, G,2 G, G, F,2 E,- | E, D,3- D,2- D,/ z/ z | G, .G,3 G, .G,3 | G, D,2 E,- E, C,3 | %6
 C, D,3 D, D,2 D,- | D, [G,,G,]3- [G,,G,]2- [G,,G,]/ z/ G,- | G, C,2 C,- C, C,3 | .C,2 z2 z4 | %10
 G, D,2 D,- D, G,2 E,- | E, D,3- D,2- D,/ z/ z | z8 | G, D,2 E,- E, C,3 | C, D,3 D, D,2 D,- | %15
 D, [G,,G,]3- [G,,G,]4- | [G,,G,]2 z2 z4 |] %17

